X:750
T:Reel 750
M:4/4
K:Gmaj
L:1/8
ge|d>G (3GGG dcBc|A>G (3GGG g2fg|afde =fefc|ABcd edce:||2G2=fd cAed|c2ec  (3ABc Ag|fgag fdce|dfgf gabc'|ad'd'b c'bc'a|gece gfge|dcBd G2 (3def |g2bg fgaf|gbab gbag|fdef d2dc|ABcA BGAF|
